X:1868
L:1/8
M:6/8
K:D
 B | Add dcB | ABA AFD | DFA d2 e | fdB B2 d | Add dcB | ABA AFA | dcd efg | fdd d2 :: f | 
 afd dcd | BGG G2 g | bge e^de | cAA A2 G | FAd dcB | ABA AFA | dcd efg | fdd d2 :|

